X:1
L:1/8
M:4/4
K:G
 D2 | G G G G D D D D | E2 E E D2 D D | G2 G2 A2 A2 | B2 A2 A2 D2 | G2 G G D D D D | 
 E E E E D2 D D | G2 G2 A2 A2 | B2 G2 G4 ||
